X: 29826
T: O'Connor's
R: polka
M: 2/4
K: Dmajor
|:A>B df|A>B d/e/f/e/|dB BA/B/|dB B/c/d/B/|
AA/B/ df|A>B df|eB cd|ed d2:|
|:af fe/f/|af f>e|dB BA/B/|dB B/c/d/f/|
af f/e/d/f/|af fe/f|eB cd|ed d2:|

